src/actions/16/view-financial-account.svg

<svg viewBox="0 0 16 16" xmlns="http://www.w3.org/2000/svg">
  <style type="text/css" id="current-color-scheme">
    .ColorScheme-Text {
      color:#363636;
    }
    .ColorScheme-NegativeText {
      color:#da4453;
    }
  </style>
<path
    d="m3 2v6h-2v1h12v-1h-9v-5h10v11h1v-12h-12zm2 2v1h4v-1h-4zm0 2v1h3v-1h-3zm-4 4v4h12v-4h-12zm9 1h2v2h-2v-2zm-8 1h1v1h-1v-1zm2 0h1v1h-1v-1zm2 0h1v1h-1v-1zm2 0h1v1h-1v-1z"
    style="fill:currentColor;fill-opacity:1;stroke:none"
    class="ColorScheme-Text"
    />
<path
    d="m10 4v1h3v-1z"
    style="fill:currentColor;fill-opacity:1;stroke:none"
    class="ColorScheme-NegativeText"
    />
</svg>

<svg xmlns="http://www.w3.org/2000/svg" viewBox="0 0 16 16">
    <path d="M3 2v6H1v1h12V8H4V3h10v11h1V2H3zm2 2v1h4V4H5zm0 2v1h3V6H5zm-4 4v4h12v-4H1zm9 1h2v2h-2v-2zm-8 1h1v1H2v-1zm2 0h1v1H4v-1zm2 0h1v1H6v-1zm2 0h1v1H8v-1z" style="fill:currentColor;fill-opacity:1;stroke:none;color:#050505;opacity:.7"/>
    <path d="M10 4v1h3V4z" style="fill:currentColor;fill-opacity:1;stroke:none;color:#d98c8c"/>
</svg>
